src/assets/icons/mail.svg

<svg width="20" height="20" viewBox="0 0 20 20" fill="none" xmlns="http://www.w3.org/2000/svg">
<path d="M1.25 7.22425V14.375C1.25 15.7557 2.36929 16.875 3.75 16.875H16.25C17.6307 16.875 18.75 15.7557 18.75 14.375V7.22425L11.3102 11.8026C10.5067 12.297 9.49327 12.297 8.68976 11.8026L1.25 7.22425Z" fill="#A685FA"/>
<path d="M18.75 5.75652V5.625C18.75 4.24429 17.6307 3.125 16.25 3.125H3.75C2.36929 3.125 1.25 4.24429 1.25 5.625V5.75652L9.34488 10.738C9.74664 10.9852 10.2534 10.9852 10.6551 10.738L18.75 5.75652Z" fill="#A685FA"/>
</svg>

<svg xmlns="http://www.w3.org/2000/svg" width="20" height="20" fill="#a685fa" xmlns:v="https://vecta.io/nano"><path d="M1.25 7.224v7.151a2.5 2.5 0 0 0 2.5 2.5h12.5a2.5 2.5 0 0 0 2.5-2.5V7.224l-7.44 4.578a2.5 2.5 0 0 1-2.62 0L1.25 7.224zm17.5-1.467v-.132a2.5 2.5 0 0 0-2.5-2.5H3.75a2.5 2.5 0 0 0-2.5 2.5v.132l8.095 4.981a1.25 1.25 0 0 0 1.31 0l8.095-4.981z"/></svg>
